icons/lines/smart-car.svg

<svg xmlns="http://www.w3.org/2000/svg" width="24" height="24" viewBox="0 0 24 24" fill="none" stroke="currentColor" stroke-width="2" stroke-linecap="round" stroke-linejoin="round" >
  <path d="M12.1403 7.62H6.87025C5.01025 7.62 4.59026 8.55001 4.36026 9.70001L3.51025 13.75H15.5103L14.6603 9.70001C14.4103 8.55001 14.0003 7.62 12.1403 7.62Z"/>
  <path d="M16.9901 20.36C17.0701 21.24 16.3701 22 15.4701 22H14.0601C13.2501 22 13.1401 21.65 12.9901 21.23L12.8401 20.78C12.6301 20.17 12.4901 19.75 11.4101 19.75H7.57013C6.49013 19.75 6.33012 20.22 6.14012 20.78L5.99013 21.23C5.85013 21.66 5.74012 22 4.92012 22H3.51012C2.61012 22 1.90013 21.24 1.99013 20.36L2.41013 15.79C2.52013 14.66 2.73012 13.74 4.70012 13.74H14.2701C16.2401 13.74 16.4501 14.66 16.5601 15.79L16.9901 20.36Z"/>
  <path d="M3.5 11.5H2.75"/>
  <path d="M16.25 11.5H15.5"/>
  <path d="M5 16.75H7.25"/>
  <path d="M11.75 16.75H14"/>
  <path d="M18.7101 8.73992C18.9901 8.08992 18.8901 7.20993 18.3701 6.43993C17.8601 5.66993 17.0801 5.23993 16.3701 5.24993"/>
  <path d="M21.8201 9.72998C22.2401 8.21998 21.9401 6.37002 20.8701 4.77002C19.8001 3.17002 18.2001 2.19 16.6401 2"/>
  </svg>

<svg xmlns="http://www.w3.org/2000/svg" width="24" height="24" viewBox="0 0 24 24" fill="none" stroke="currentColor" stroke-width="2" stroke-linecap="round" stroke-linejoin="round">
  <path d="M11.75 16.75H14" />
  <path d="M16.25 11.5h-.75" />
  <path d="M16.99 20.36A1.51 1.51 0 0 1 15.47 22h-1.41c-.81 0-.92-.35-1.07-.77l-.15-.45c-.21-.61-.35-1.03-1.43-1.03H7.57c-1.08 0-1.24.47-1.43 1.03l-.15.45c-.14.43-.25.77-1.07.77H3.51c-.9 0-1.61-.76-1.52-1.64l.42-4.57c.11-1.13.32-2.05 2.29-2.05h9.57c1.97 0 2.18.92 2.29 2.05z" />
  <path d="M18.71 8.74c.28-.65.18-1.53-.34-2.3-.51-.77-1.29-1.2-2-1.19" />
  <path d="M21.82 9.73c.42-1.51.12-3.36-.95-4.96S18.2 2.19 16.64 2" />
  <path d="M3.5 11.5h-.75" />
  <path d="M5 16.75h2.25" />
  <path d="M6.87 7.62c-1.86 0-2.28.93-2.51 2.08l-.85 4.05h12l-.85-4.05c-.25-1.15-.66-2.08-2.52-2.08z" />
</svg>
